!!!COM: Robert Franz
!!!CNT: Deutscher
!!!TXO: Deutsche 
!!!OTL: "Die Liebe hat gelogen!"
!!!OPS: Op. 6
!!!ONM: No. 4
!!!ONB: Original key: Bb Major
!!!LYR: W. Osterwald
!!!ENC: Brian Bice
!!!YOR: Vocal Album, G. Schirmer, Inc., 1907
!!!ODT: 1846/
!!NB: Vocal melody and text only encoded.
**kern	**silbe
*clefG2	*
*k[f#c#g#]	*
*M4/4	*
=4	=4
2r	.
4r	.
{4c#	{Des
=5	=5
4B#	Wal-
4c#	-des
4d	Wip-
4c#	-fel
=6	=6
2a	rau-
4g#	-schen
4f#	un-
=7	=7
4e#	-heim-
4g#	lich
4b	hin
4dd	und
=8	=8
2cc#}	her,}
4r	.
{4c#	{die
=9	=9
4B#	Vo2g-
4c#	-lein
4d	schwei-
8c#	-gen
8c#	und
=10	=10
2a	lau-
4g#	-schen,
4f#	singt
=11	=11
4dd#	kei-
4cc#	-nes,
4b#	kei-
4cc#	-nes
=12	=12
2g#}	mehr.}
2r	.
=16	=16
2r	.
4r	.
{4c#	{Was
=17	=17
4e	wo2lbst
4gn	du
4f#	noch
4e	die
=18	=18
(2d	Bo-
4c#)	-gen,
4B	du
=19	=19
(4cc#	stol-
4b	-zes
4a#	A-
4b)	-bend-
=20	=20
2f#}	-roth?}
4r	.
{4f#	{die
=21	=21
4e#	Lie-
4g#	-be
4b	hat
4dd	ge-
=22	=22
2cc#	-lo-
4g	-gen,
4b	die
=23	=23
4a	Treu'
4g#	ist
4f#	todt,
4en	ist
=24	=24
2d}	todt,}
4r	.
{4d	{ist
=25	=25
2.c#}	todt!}
4r	.
=30	=30
2r	.
4r	.
{4c#	{Die
=31	=31
4B#	klei-
4c#	-nen
4d	Blu-
4c#	-men
=32	=32
2a	sen-
4g#	-ken
4f#	weh-
=33	=33
4e#	-mu2-
4g#	thig-
4b	-lich
4d	das
=34	=34
2cc#}	Haupt,}
4r	.
{4c#	{wenn
=35	=35
4B#	sie
4c#	des
4d	Tags
4c#	ge-
=36	=36
2a	-den-
4g#	-ken,
4f#	der
=37	=37
(4dd#	Al-
4cc#	-les
4b#	mir
4cc#)	ge-
=38	=38
2g#}	-raubt.}
2r	.
=42	=42
2r	.
4r	.
{4c#	{Wie
=43	=43
4e	blei-
4gn	-che
4f#	Blit-
4e	-ze
=44	=44
2d	zie-
4c#	-hen
4B	mir
=45	=45
(4cc#	Schmer-
4b	-zen
4a#	durch
4b)	den
=46	=46
2f#}	Sinn;}
4r	.
{4f#	{ich
=47	=47
4e#	mo2ch-
4g#	-te
4b	flie-
4dd	-hen,
=48	=48
2cc#	flie-
4g#	-hen,
4b	und
=49	=49
(3a	weiss
3b)	|
3cc#	doch
=50	=50
2dd}	nicht}
4r	.
{4f#	{wo-
=51	=51
2.a}	hin?}
4r	.
*-	*-
